app/dist/common/images/guangdong-electric.svg

<svg height="18" viewBox="0 0 18 18" width="18" xmlns="http://www.w3.org/2000/svg"><path d="m0 0h18v18h-18z" fill="#f0f3fa"/><path d="m10 5h-2v8.5c0 .28.2.5.45.5h3.02v-.7h-1.47zm2.91 1c.6 0 1.09.48 1.09 1.06v3.88c0 .58-.49 1.06-1.09 1.06h-2.91v-1h1.44c.31 0 .56-.24.56-.54v-2.92c0-.3-.25-.54-.56-.54h-1.44v-1zm-2.91 3h1v1h-1zm-6-1.94c0-.58.46-1.06 1.02-1.06h2.73v1h-1.2c-.3 0-.55.24-.55.54v2.92c0 .3.25.54.56.54h.44v-1h-.5v-1h1.25v3h-2.73c-.56 0-1.02-.48-1.02-1.06z" fill="#fb0303"/></svg>

<!-- by TradingView --><svg width="18" height="18" viewBox="0 0 18 18" xmlns="http://www.w3.org/2000/svg"><path fill="#F0F3FA" d="M0 0h18v18H0z"/><path d="M10 5H8v8.5c0 .28.2.5.45.5h3.02v-.7H10V5Zm2.91 1c.6 0 1.09.48 1.09 1.06v3.88c0 .58-.49 1.06-1.09 1.06H10v-1h1.44c.31 0 .56-.24.56-.54V7.54c0-.3-.25-.54-.56-.54H10V6h2.91ZM10 9h1v1h-1V9ZM4 7.06C4 6.48 4.46 6 5.02 6h2.73v1h-1.2c-.3 0-.55.24-.55.54v2.92c0 .3.25.54.56.54H7v-1h-.5V9h1.25v3H5.02C4.46 12 4 11.52 4 10.94V7.06Z" fill="#FB0303"/></svg>
